src/assets/icons/exit.svg

<svg width="24" height="24" viewBox="0 0 24 24" fill="none" xmlns="http://www.w3.org/2000/svg">
<g clip-path="url(#clip0_1717_12493)">
<path fill-rule="evenodd" clip-rule="evenodd" d="M14.4995 7.24961C14.4995 7.6636 14.8355 7.99959 15.2495 7.99959C15.6634 7.99959 15.9994 7.6636 15.9994 7.24961V2.74975C15.9994 1.23278 14.7666 -0.00022678 13.2496 -0.00022678H2C1.9998 -0.00022678 1.99959 -0.000226699 1.99939 -0.000226537C0.896686 0.000101885 -4.14467e-06 0.896994 -4.14467e-06 1.99977V19.9992C-4.14467e-06 20.8521 0.543026 21.615 1.36191 21.9011L7.37981 23.906C7.58273 23.969 7.78578 23.999 7.99981 23.999C9.10279 23.999 9.99962 23.102 9.99962 21.999V20.9991H13.2496C14.7667 20.9991 15.9994 19.7661 15.9994 18.2491V13.7493C15.9994 13.3353 15.6634 12.9993 15.2495 12.9993C14.8355 12.9993 14.4995 13.3353 14.4995 13.7493V18.2491C14.4995 18.9381 13.9387 19.4992 13.2496 19.4992H9.99962V3.99959C9.99962 3.14672 9.45673 2.38371 8.63771 2.09774L6.84283 1.49973H13.2496C13.9386 1.49973 14.4995 2.06071 14.4995 2.74975V7.24961ZM19.4994 14.9993C19.4009 14.9995 19.3033 14.9802 19.2123 14.9424C19.1213 14.9047 19.0387 14.8493 18.9693 14.7794C18.6763 14.4863 18.6763 14.0113 18.9693 13.7183L21.4385 11.2492H13.7495C13.3355 11.2492 12.9995 10.9132 12.9995 10.4993C12.9995 10.0853 13.3355 9.74928 13.7495 9.74928H21.4401L18.9693 7.27853C18.6763 6.98557 18.6763 6.5106 18.9693 6.21764C19.2624 5.9245 19.7374 5.9245 20.0304 6.21764L23.7803 9.96752C24.0492 10.2365 24.0712 10.6588 23.8464 10.9529C23.8221 10.9848 23.7954 11.0147 23.7664 11.0423L20.0304 14.7783C19.9609 14.8485 19.8782 14.9042 19.7871 14.9421C19.6959 14.98 19.5981 14.9995 19.4994 14.9993ZM2 1.49973C1.72499 1.49973 1.49995 1.72472 1.49995 1.99977V19.9992C1.49995 20.2122 1.64291 20.4101 1.84691 20.4811L7.83664 22.4771C7.87967 22.491 7.93573 22.4991 7.99981 22.4991C8.27482 22.4991 8.49967 22.274 8.49967 21.999V3.99959C8.49967 3.78664 8.3567 3.58869 8.15271 3.51768L2.16298 1.52171C2.11995 1.50779 2.06388 1.49973 2 1.49973Z" fill="#3C4158"/>
</g>
<defs>
<clipPath id="clip0_1717_12493">
<rect width="24" height="24" fill="white"/>
</clipPath>
</defs>
</svg>

<svg xmlns="http://www.w3.org/2000/svg" width="24" height="24" fill="none"><g clip-path="url(#a)"><path fill="#3C4158" fill-rule="evenodd" d="M14.5 7.25a.75.75 0 0 0 1.5 0v-4.5A2.752 2.752 0 0 0 13.25 0H2C.896 0 0 .897 0 2v18c0 .852.543 1.615 1.362 1.901l6.018 2.005c.203.063.406.093.62.093 1.103 0 2-.897 2-2v-1h3.25A2.752 2.752 0 0 0 16 18.25v-4.5a.75.75 0 0 0-1.5 0v4.5c0 .69-.561 1.25-1.25 1.25H10V4c0-.852-.543-1.615-1.362-1.901L6.843 1.5h6.407c.689 0 1.25.56 1.25 1.25v4.5Zm5 7.75a.744.744 0 0 1-.53-.22.75.75 0 0 1 0-1.062l2.469-2.469h-7.69a.75.75 0 0 1 0-1.5h7.691l-2.47-2.47a.75.75 0 1 1 1.06-1.061l3.75 3.75a.75.75 0 0 1-.014 1.074l-3.736 3.736a.745.745 0 0 1-.53.221ZM2 1.5c-.275 0-.5.225-.5.5v18c0 .212.143.41.347.481l5.99 1.996c.043.014.099.022.163.022.275 0 .5-.225.5-.5v-18a.52.52 0 0 0-.347-.481l-5.99-1.996A.543.543 0 0 0 2 1.5Z" clip-rule="evenodd"/></g><defs><clipPath id="a"><path fill="#fff" d="M0 0h24v24H0z"/></clipPath></defs></svg>
